src/assets/weather-icons/rain.svg

<svg xmlns="http://www.w3.org/2000/svg" xmlns:xlink="http://www.w3.org/1999/xlink" xml:space="preserve" style="fill-rule:evenodd;clip-rule:evenodd;stroke-linecap:round;stroke-linejoin:round;stroke-miterlimit:1.5" viewBox="0 0 128 128"><defs><path id="reuse-0" fill="none" d="M47.5 84S54 92.75 54 96.5c0 3.587-2.913 6.5-6.5 6.5a6.504 6.504 0 0 1-6.5-6.5c0-3.75 6.5-12.5 6.5-12.5"/></defs><path fill="none" d="M39 104.992c-10.532-.32-19-10.723-19-23.492C20 68.53 28.738 58 39.5 58c2.45 0 4.796.546 6.957 1.542C50.787 50.378 60.377 44 71.5 44 84.584 44 92 54 90 69c12-2 20 5.93 20 15.5 0 11.093-6.676 20.14-15 20.49v.01H39z" style="fill:#ebebeb;fill-opacity:0;stroke:#000;stroke-width:4.77px" transform="matrix(.87778 0 0 .79918 6.944 -13.101)"/><use xlink:href="#reuse-0" style="fill:#ebebeb;fill-opacity:0;stroke:#000;stroke-width:4px" transform="translate(-2.5 -5.063)"/><use xlink:href="#reuse-0" style="fill:#ebebeb;fill-opacity:0;stroke:#000;stroke-width:4px" transform="translate(17.5 2.938)"/><use xlink:href="#reuse-0" style="fill:#ebebeb;fill-opacity:0;stroke:#000;stroke-width:4px" transform="translate(35.5 -8.063)"/></svg>

<?xml version="1.0" encoding="UTF-8" standalone="no"?>
<!DOCTYPE svg PUBLIC "-//W3C//DTD SVG 1.1//EN" "http://www.w3.org/Graphics/SVG/1.1/DTD/svg11.dtd">
<svg width="100%" height="100%" viewBox="0 0 128 128" version="1.1" xmlns="http://www.w3.org/2000/svg" xmlns:xlink="http://www.w3.org/1999/xlink" xml:space="preserve" xmlns:serif="http://www.serif.com/" style="fill-rule:evenodd;clip-rule:evenodd;stroke-linecap:round;stroke-linejoin:round;stroke-miterlimit:1.5;">
    <rect x="0" y="0" width="128" height="128" style="fill:white;"/>
    <g transform="matrix(0.87778,0,0,0.79918,6.944,-13.101)">
        <path d="M39,104.992C28.468,104.672 20,94.269 20,81.5C20,68.53 28.738,58 39.5,58C41.95,58 44.296,58.546 46.457,59.542C50.787,50.378 60.377,44 71.5,44C84.584,44 92,54 90,69C102,67 110,74.93 110,84.5C110,95.593 103.324,104.64 95,104.99L95,105L39,105L39,104.992Z" style="fill:white;stroke:black;stroke-width:4.77px;"/>
    </g>
    <g id="reuse-0" transform="matrix(1,0,0,1,-2.5,-5.063)">
        <path d="M47.5,84C47.5,84 54,92.75 54,96.5C54,100.087 51.087,103 47.5,103C43.935,102.998 41.002,100.065 41,96.5C41,92.75 47.5,84 47.5,84" style="fill:white;stroke:black;stroke-width:4px;"/>
    </g>
    <g id="reuse-01" serif:id="reuse-0" transform="matrix(1,0,0,1,17.5,2.938)">
        <path d="M47.5,84C47.5,84 54,92.75 54,96.5C54,100.087 51.087,103 47.5,103C43.935,102.998 41.002,100.065 41,96.5C41,92.75 47.5,84 47.5,84" style="fill:white;stroke:black;stroke-width:4px;"/>
    </g>
    <g id="reuse-02" serif:id="reuse-0" transform="matrix(1,0,0,1,35.5,-8.063)">
        <path d="M47.5,84C47.5,84 54,92.75 54,96.5C54,100.087 51.087,103 47.5,103C43.935,102.998 41.002,100.065 41,96.5C41,92.75 47.5,84 47.5,84" style="fill:white;stroke:black;stroke-width:4px;"/>
    </g>
</svg>
